X: 46
T: Missa octavi toni &mdash; Gloria
C: Gaspar van Weerbeke
%%abc-version 2.0
%%abcx-abcm2ps-target-version 5.9.1 (29 Sep 2008)
%%abc-creator hum2abc beta
%%abcx-conversion-date 2022/03/06 13:05:56
%%abc-copyright Copyright 2016, Kolb, Paul
%%abc-edited-by Zybina, Karina
%%humdrum-veritas 2564588731
%%humdrum-veritas-data 1944849434
%%linebreak <none>
%%barnumbers 0
L: 1/4
M: 3/2
N: Derived from Gas0204b-Missa_Octavi_toni-Gloria.krn
%%staves [1 2 3 4]
V: 1 clef=treble
V: 2 clef=treble-8
V: 3 clef=treble-8
V: 4 clef=bass
K: C
[V:1] G4G2 | 
[V:2] d4de | 
[V:3] G6 | 
[V:4] G,6 | 
[V:1] A4G2 | 
[V:2] f4d2- | 
[V:3] c4B2 | 
[V:4] F,4G,2 | 
[V:1] FA2G/F/E2 | 
[V:2] df2e/d/cA- | 
[V:3] A2>B2c2 | 
[V:4] D,>E,F,G,A,2 | 
[V:1] DG2FE2 | 
[V:2] A/B<cA/A3 | 
[V:3] de2d2^c | 
[V:4] D,C,2D,A,,2 | 
[V:1] F>EDG2^F | 
[V:2] DF>GEDd- | 
[V:3] d2BcA2 | 
[V:4] zD,2C,D,2 | 
[V:1] G4z2 | 
[V:2] d/c/B/A<Bc/d2 | 
[V:3] G6 | 
[V:4] G,,6 | 
[V:1] E2E2F2 | 
[V:2] c2Bcd3/c/ | 
[V:3] G2G2F2 | 
[V:4] C,2E,2D,2 | 
[V:1] AG>FEDG | 
[V:2] ABc2d2 | 
[V:3] FG2AB2 | 
[V:4] F,E,C,2G,,2 | 
[V:1] FE2D2^C | 
[V:2] zc2A3 | 
[V:3] A2GFE2 | 
[V:4] A,,2C,D,A,,2 | 
[V:1] D2z2F2 | 
[V:2] F>GA2D2 | 
[V:3] D4A2 | 
[V:4] z6 | 
[V:1] F2>F2F2 | 
[V:2] d2d3d | 
[V:3] A2>A2A2 | 
[V:4] D,2D,3D, | 
[V:1] z2E2E2- | 
[V:2] d2c2c2 | 
[V:3] z2A2Ac- | 
[V:4] D,2z2z2 | 
[V:1] EG2G2G | 
[V:2] ce2e>dc | 
[V:3] cc2cG2 | 
[V:4] C,2C,C,2E,- | 
[V:1] E2F>E D/C/D- | 
[V:2] Bcd2z2 | 
[V:3] z6 | 
[V:4] E,E,D,>E,F,D, | 
[V:1] DCDB,A,2 | 
[V:2] z6 | 
[V:3] z6 | 
[V:4] G,A,2G,2^F, | 
[V:1] G,2z2F2 | 
[V:2] z6 | 
[V:3] z2d2dd- | 
[V:4] G,4z2 | 
[V:1] FF2FF2 | 
[V:2] A2AA2A | 
[V:3] ddd2z2 | 
[V:4] D,2D,D,2D, | 
[V:1] zFGGAc | 
[V:2] A2d2cA | 
[V:3] d2BBA2 | 
[V:4] D,2z2F,2 | 
[V:1] BA2G2^F | 
[V:2] GA2<d2d | 
[V:3] Bd2BA2 | 
[V:4] G,F,D,G,D,2 | 
[V:1] G6 | 
[V:2] Bcd2G2 | 
[V:3] G4z2 | 
[V:4] G,,4z2 | 
[V:1] z6 | 
[V:2] z6 | 
[V:3] E>FGA2G | 
[V:4] C,2C,C,B,,2 | 
[V:1] z6 | 
[V:2] z6 | 
[V:3] FA2FE2 | 
[V:4] A,,>B,,C,D,2^C, | 
[V:1] z6 | 
[V:2] z6 | 
[V:3] Dd>cB/A/Gc- | 
[V:4] D,2F,2E,2- | 
[V:1] z6 | 
[V:2] z6 | 
[V:3] cB2A2^G | 
[V:4] E,D,2C,B,,2 | 
[V:1] A2Ac2A- | 
[V:2] c2c2ef- | 
[V:3] A2zA2A | 
[V:4] A,,4C,D,- | 
[V:1] AG/F/E2F2 | 
[V:2] fe/d/ecA2- | 
[V:3] A>Bc2zd- | 
[V:4] D,D,C,2D,2 | 
[V:1] E2DG>FE/D/ | 
[V:2] A2zd2G | 
[V:3] dcBGB2 | 
[V:4] A,,2z2G,,2 | 
[V:1] CE2D2^C | 
[V:2] c3A3 | 
[V:3] A2GFE2 | 
[V:4] A,,2C,D,A,,2 | 
[V:1] D2z2D2 | 
[V:2] F4A2 | 
[V:3] D4z2 | 
[V:4] A,3F,2D, | 
[V:1] FFF>GA3/B/ | 
[V:2] z2zf2f | 
[V:3] d4d2 | 
[V:4] D,4F,3/G,/ | 
[V:1] c2>A2G2 | 
[V:2] e4e2 | 
[V:3] c4c2 | 
[V:4] A,3G,/F,/E,2 | 
[V:1] FA2B>cd- | 
[V:2] A2zd>cB/A/ | 
[V:3] d4G2 | 
[V:4] D,4z2 | 
[V:1] d/c/A2G2^F | 
[V:2] GF2GD2 | 
[V:3] Bc2BA2 | 
[V:4] z6 | 
[V:1] G2z2z2 | 
[V:2] d2cAGc | 
[V:3] G2z2z2 | 
[V:4] G,,2A,,C,2A,, | 
[V:1] z6 | 
[V:2] dBc>de2 | 
[V:3] G2Ac2A | 
[V:4] B,,2A,,4 | 
[V:1] G2Ac2B/A/ | 
[V:2] z2c2f2 | 
[V:3] B2A4 | 
[V:4] E,2F,4 | 
[V:1] B2A2zd- | 
[V:2] dg2^fg2 | 
[V:3] zd2cBG | 
[V:4] G,2A,2G,2 | 
[V:1] dcBGA2 | 
[V:2] z2decf | 
[V:3] A2Gc2B/A/ | 
[V:4] F,2G,E,F,2 | 
[V:1] Gc2B/A/BA- | 
[V:2] def2ge | 
[V:3] BA2d2c | 
[V:4] z2z2G,A, | 
[V:1] Ad2cBA- | 
[V:2] f2zcfe | 
[V:3] d2e2dc | 
[V:4] F,D,A,2z2 | 
[V:1] A/G/F/E/DG2^F | 
[V:2] fd2cd2 | 
[V:3] d2BGA2 | 
[V:4] D,F,G,E,D,2 | 
[V:1] G4 ||  
[V:2] d4 ||  
[V:3] G4 ||  
[V:4] G,,4 ||  
[V:1] [M:2/2]z4 | 
[V:2] [M:2/2]z4 | 
[V:3] [M:2/2]A4 | 
[V:4] [M:2/2]D,4 | 
[V:1] z4 | 
[V:2] z4 | 
[V:3] A2B2 | 
[V:4] D,4 | 
[V:1] z4 | 
[V:2] z4 | 
[V:3] A2d2- | 
[V:4] F,4 | 
[V:1] z4 | 
[V:2] z4 | 
[V:3] d2c2 | 
[V:4] E,4 | 
[V:1] z4 | 
[V:2] z4 | 
[V:3] d2f2 | 
[V:4] F,2D,2 | 
[V:1] z4 | 
[V:2] z4 | 
[V:3] e2d2- | 
[V:4] C,2D,2 | 
[V:1] z4 | 
[V:2] z4 | 
[V:3] d2^c2 | 
[V:4] E,4 | 
[V:1] z4 | 
[V:2] z4 | 
[V:3] d4 | 
[V:4] z2D,2 | 
[V:1] z4 | 
[V:2] z4 | 
[V:3] z4 | 
[V:4] C,C,B,,D,- | 
[V:1] z4 | 
[V:2] z4 | 
[V:3] d2cc | 
[V:4] D,B,,A,,2 | 
[V:1] z4 | 
[V:2] z4 | 
[V:3] Bd2B | 
[V:4] G,,2G,2 | 
[V:1] z4 | 
[V:2] z4 | 
[V:3] A2G2 | 
[V:4] F,2G,2 | 
[V:1] z4 | 
[V:2] z4 | 
[V:3] F3G | 
[V:4] D,3E, | 
[V:1] z4 | 
[V:2] z4 | 
[V:3] A2D2 | 
[V:4] F,G,A,2 | 
[V:1] z4 | 
[V:2] z4 | 
[V:3] F3E/D/ | 
[V:4] D,2A,2 | 
[V:1] z4 | 
[V:2] z4 | 
[V:3] EDA2 | 
[V:4] G,F,2D, | 
[V:1] z4 | 
[V:2] z4 | 
[V:3] _BA>GA- | 
[V:4] G,F,D,2 | 
[V:1] z4 | 
[V:2] z4 | 
[V:3] AFE2 | 
[V:4] A,,D,2^C, | 
[V:1] z4 | 
[V:2] z4 | 
[V:3] D2zd- | 
[V:4] D,4 | 
[V:1] z4 | 
[V:2] z4 | 
[V:3] d/c/B/A/Gc | 
[V:4] F,2E,2 | 
[V:1] z4 | 
[V:2] z4 | 
[V:3] BA2^G | 
[V:4] D,C,B,,2 | 
[V:1] z4 ||  
[V:2] z4 ||  
[V:3] A4 ||  
[V:4] A,,4 ||  
[V:1] !fermata!E4 | 
[V:2] !fermata!c4 | 
[V:3] !fermata!A4 | 
[V:4] !fermata!A,,4 | 
[V:1] !fermata!F4 | 
[V:2] !fermata!d4 | 
[V:3] !fermata!A4 | 
[V:4] !fermata!D,4 | 
[V:1] !fermata!G4- | 
[V:2] !fermata!e4- | 
[V:3] !fermata!c4- | 
[V:4] !fermata!C,4- | 
[V:1] G4 | 
[V:2] e4 | 
[V:3] c4 | 
[V:4] C,4 | 
[V:1] !fermata!F4 ||  
[V:2] !fermata!d4 ||  
[V:3] !fermata!A4 ||  
[V:4] !fermata!D,4 ||  
[V:1] [M:2/2]F4 | 
[V:2] [M:2/2]A4 | 
[V:3] [M:2/2]D4 | 
[V:4] [M:2/2]z4 | 
[V:1] F2F2 | 
[V:2] A2A2 | 
[V:3] D2D2 | 
[V:4] z4 | 
[V:1] G2B2 | 
[V:2] B2G2 | 
[V:3] G4 | 
[V:4] z4 | 
[V:1] A2c2 | 
[V:2] d2e2 | 
[V:3] D2C2 | 
[V:4] z4 | 
[V:1] BA2G- | 
[V:2] d2cB- | 
[V:3] GF2G | 
[V:4] z4 | 
[V:1] G^F/E/F2 | 
[V:2] BA/G/A2 | 
[V:3] E2D2 | 
[V:4] z4 | 
[V:1] G4 | 
[V:2] G4 | 
[V:3] G4 | 
[V:4] G,,4- | 
[V:1] G2G2 | 
[V:2] d2d2 | 
[V:3] B2B2 | 
[V:4] G,,2G,,2 | 
[V:1] F4- | 
[V:2] d4- | 
[V:3] A4- | 
[V:4] D,4- | 
[V:1] F4 | 
[V:2] d4 | 
[V:3] A4 | 
[V:4] D,4 | 
[V:1] E3F | 
[V:2] G4 | 
[V:3] c4- | 
[V:4] C,4 | 
[V:1] GA2G | 
[V:2] z2d3/e/ | 
[V:3] c2B2 | 
[V:4] E,F,G,2 | 
[V:1] c2B2- | 
[V:2] f2dg- | 
[V:3] A2d2- | 
[V:4] F,2G,2- | 
[V:1] BAA2- | 
[V:2] g/f/e/d/cd | 
[V:3] dcA2 | 
[V:4] G,A,F,2 | 
[V:1] A2^G2 | 
[V:2] e2z2 | 
[V:3] B4 | 
[V:4] E,4 | 
[V:1] A4 | 
[V:2] c2f2 | 
[V:3] A4 | 
[V:4] F,3E, | 
[V:1] z4 | 
[V:2] e2d2 | 
[V:3] z2A2 | 
[V:4] C,2F,2 | 
[V:1] z4 | 
[V:2] zGAB- | 
[V:3] Bcd2 | 
[V:4] E,2D,G,- | 
[V:1] z4 | 
[V:2] BG2F | 
[V:3] Gc2B | 
[V:4] G,E,D,2 | 
[V:1] E4 | 
[V:2] G2G2 | 
[V:3] c2c2 | 
[V:4] C,2C,2 | 
[V:1] E2E2- | 
[V:2] G2Gc- | 
[V:3] c2G2- | 
[V:4] C,2C,2- | 
[V:1] E2E2 | 
[V:2] cB/A/G2 | 
[V:3] G2c2 | 
[V:4] C,2C,2 | 
[V:1] G2G2 | 
[V:2] G2G2 | 
[V:3] B2c2 | 
[V:4] E,2E,2 | 
[V:1] F3E/D/ | 
[V:2] A2D2 | 
[V:3] d3c | 
[V:4] D,2z2 | 
[V:1] FE2D- | 
[V:2] dBcA- | 
[V:3] AG2F | 
[V:4] D,E,C,D, | 
[V:1] D^CD2 | 
[V:2] AAA2 | 
[V:3] E2D2 | 
[V:4] A,,2z2 | 
[V:1] A2A2 | 
[V:2] A2A2 | 
[V:3] F2F2 | 
[V:4] D,2D,2 | 
[V:1] A2A2 | 
[V:2] d2d2 | 
[V:3] F2F2 | 
[V:4] D,2D,2 | 
[V:1] _B4 | 
[V:2] d4 | 
[V:3] G4 | 
[V:4] G,,4 | 
[V:1] A4 | 
[V:2] z4 | 
[V:3] A2c2 | 
[V:4] D,2C,2 | 
[V:1] z4 | 
[V:2] z4 | 
[V:3] B2Ad- | 
[V:4] E,2F,2 | 
[V:1] z4 | 
[V:2] z4 | 
[V:3] d/c/B2A- | 
[V:4] D,G,2F, | 
[V:1] z4 | 
[V:2] z4 | 
[V:3] AGFA- | 
[V:4] E,2D,2 | 
[V:1] z4 | 
[V:2] z4 | 
[V:3] AG2^F | 
[V:4] B,,C,A,,2 | 
[V:1] G4- | 
[V:2] B4 | 
[V:3] G4 | 
[V:4] G,,4 | 
[V:1] G4 | 
[V:2] G2G2 | 
[V:3] B4 | 
[V:4] z4 | 
[V:1] G2G2 | 
[V:2] d2d2 | 
[V:3] B2B2 | 
[V:4] G,,2G,,2 | 
[V:1] E2F2 | 
[V:2] c4 | 
[V:3] A4 | 
[V:4] A,,2A,,2 | 
[V:1] G3E | 
[V:2] d4 | 
[V:3] B3G | 
[V:4] G,,4 | 
[V:1] F4- | 
[V:2] z4 | 
[V:3] A2D2 | 
[V:4] D,4- | 
[V:1] F4 | 
[V:2] d4 | 
[V:3] F3G | 
[V:4] D,4 | 
[V:1] F4 | 
[V:2] d4 | 
[V:3] A4- | 
[V:4] D,4 | 
[V:1] E4- | 
[V:2] c4 | 
[V:3] A4 | 
[V:4] A,,4- | 
[V:1] E4 | 
[V:2] z2A2 | 
[V:3] E3F | 
[V:4] A,,2C,2 | 
[V:1] D4- | 
[V:2] B2G2 | 
[V:3] G2G2 | 
[V:4] B,,4 | 
[V:1] D2D2 | 
[V:2] D4- | 
[V:3] G2G2 | 
[V:4] B,,2B,,2 | 
[V:1] D4 | 
[V:2] D4 | 
[V:3] G4 | 
[V:4] B,,4 | 
[V:1] z2C2 | 
[V:2] z2E2 | 
[V:3] A4 | 
[V:4] A,,4 | 
[V:1] D2D2 | 
[V:2] D2D2 | 
[V:3] G4 | 
[V:4] B,,2B,,2 | 
[V:1] C2F2- | 
[V:2] E2D2 | 
[V:3] A2F2 | 
[V:4] A,,2D,2- | 
[V:1] F2G2 | 
[V:2] F2D2 | 
[V:3] D2G2- | 
[V:4] D,2B,,2 | 
[V:1] A4 | 
[V:2] C4 | 
[V:3] G2^F2 | 
[V:4] A,,4 | 
[V:1] B4- | 
[V:2] D4 | 
[V:3] G4- | 
[V:4] G,,4- | 
[V:1] B4 | 
[V:2] d4- | 
[V:3] G4 | 
[V:4] G,,4 | 
[V:1] A2G2- | 
[V:2] d2c2 | 
[V:3] F2G2 | 
[V:4] D,2E,2 | 
[V:1] G2^F2 | 
[V:2] d4 | 
[V:3] A4 | 
[V:4] D,4 | 
[V:1] G4 | 
[V:2] B4 | 
[V:3] G4 | 
[V:4] G,,4 | 
[V:1] z2E2- | 
[V:2] A4 | 
[V:3] z4 | 
[V:4] z4 | 
[V:1] E2G2 | 
[V:2] c2B2 | 
[V:3] z4 | 
[V:4] z4 | 
[V:1] F2E2 | 
[V:2] A2c2 | 
[V:3] z4 | 
[V:4] z4 | 
[V:1] G2F2 | 
[V:2] B2A2 | 
[V:3] z4 | 
[V:4] z4 | 
[V:1] E2z2 | 
[V:2] z2d2 | 
[V:3] z4 | 
[V:4] z4 | 
[V:1] A2c2 | 
[V:2] f2e2 | 
[V:3] z4 | 
[V:4] z4 | 
[V:1] B2A2 | 
[V:2] dg2f | 
[V:3] z4 | 
[V:4] z4 | 
[V:1] Gc2B | 
[V:2] ecd2 | 
[V:3] z4 | 
[V:4] z4 | 
[V:1] c4 | 
[V:2] c4 | 
[V:3] z4 | 
[V:4] z4 | 
[V:1] G2G2 | 
[V:2] z4 | 
[V:3] c2c2 | 
[V:4] C,2C,2 | 
[V:1] G2E2 | 
[V:2] G2G2 | 
[V:3] c2c2 | 
[V:4] E,2E,2 | 
[V:1] F2G2- | 
[V:2] A2c2- | 
[V:3] d2e2- | 
[V:4] D,2C,2- | 
[V:1] G2F2 | 
[V:2] c2A2 | 
[V:3] edd2- | 
[V:4] C,2D,2 | 
[V:1] E4 | 
[V:2] A4 | 
[V:3] d2^c2 | 
[V:4] A,,4 | 
[V:1] z4 | 
[V:2] z4 | 
[V:3] d4 | 
[V:4] z2D,2 | 
[V:1] z4 | 
[V:2] z4 | 
[V:3] A2c2 | 
[V:4] F,2E,2 | 
[V:1] z4 | 
[V:2] z4 | 
[V:3] B2Ad- | 
[V:4] D,2F,2 | 
[V:1] z4 | 
[V:2] z4 | 
[V:3] dcB2 | 
[V:4] E,2D,G,- | 
[V:1] z4 | 
[V:2] z4 | 
[V:3] A2Gc- | 
[V:4] G,F,E,A,- | 
[V:1] z4 | 
[V:2] z4 | 
[V:3] cBA2 | 
[V:4] A,G,2^F, | 
[V:1] z4 | 
[V:2] d4 | 
[V:3] G4 | 
[V:4] G,4 | 
[V:1] F4 | 
[V:2] d4 | 
[V:3] z4 | 
[V:4] D,4 | 
[V:1] F2F2 | 
[V:2] A4- | 
[V:3] d2d2- | 
[V:4] D,2D,2 | 
[V:1] A4 | 
[V:2] A4 | 
[V:3] dcA2 | 
[V:4] F,2F,2 | 
[V:1] B3G | 
[V:2] d2e2 | 
[V:3] G4 | 
[V:4] G,2E,2 | 
[V:1] c2B2- | 
[V:2] c2g2 | 
[V:3] A2G2 | 
[V:4] F,2G,2 | 
[V:1] BAA2- | 
[V:2] e2f2 | 
[V:3] c4 | 
[V:4] A,2F,2 | 
[V:1] A2d2 | 
[V:2] d4 | 
[V:3] B4 | 
[V:4] G,4 | 
[V:1] cA2_B- | 
[V:2] ec>BG- | 
[V:3] A2cd- | 
[V:4] z4 | 
[V:1] BA2G | 
[V:2] G/F/Ad2 | 
[V:3] dc_B2 | 
[V:4] z2G,2 | 
[V:1] A4 | 
[V:2] d4 | 
[V:3] A4 | 
[V:4] D,4 | 
[V:1] z4 | 
[V:2] A2B2 | 
[V:3] z4 | 
[V:4] F,2G,2 | 
[V:1] z4 | 
[V:2] c>def- | 
[V:3] z4 | 
[V:4] A,4 | 
[V:1] z4 | 
[V:2] fe/d<cd/ | 
[V:3] z4 | 
[V:4] F,2E,2 | 
[V:1] z4 | 
[V:2] fe2d- | 
[V:3] z4 | 
[V:4] D,C,D,2 | 
[V:1] z4 | 
[V:2] d^cd2 | 
[V:3] z4 | 
[V:4] E,2D,2 | 
[V:1] A3B | 
[V:2] D2F2 | 
[V:3] d4 | 
[V:4] z4 | 
[V:1] c3B | 
[V:2] G2E2 | 
[V:3] e4 | 
[V:4] C,4 | 
[V:1] AG/F/G2 | 
[V:2] z2e2 | 
[V:3] d2c2 | 
[V:4] D,2E,2 | 
[V:1] F2_B2 | 
[V:2] f2g2 | 
[V:3] d2G2 | 
[V:4] D,2z2 | 
[V:1] A2G2- | 
[V:2] f2d2- | 
[V:3] c2B2 | 
[V:4] F,2G,2 | 
[V:1] G2^F2 | 
[V:2] dcd2 | 
[V:3] A4 | 
[V:4] D,4 | 
[V:1] !fermata!G4 ||  
[V:2] !fermata!B4 ||  
[V:3] !fermata!G4 ||  
[V:4] !fermata!E,4 ||  
[V:1] !fermata!E4 | 
[V:2] !fermata!c4 | 
[V:3] !fermata!G4 | 
[V:4] !fermata!C,4 | 
[V:1] !fermata!F4 | 
[V:2] !fermata!A4 | 
[V:3] !fermata!F4 | 
[V:4] !fermata!D,4 | 
[V:1] !fermata!D4 | 
[V:2] !fermata!B4 | 
[V:3] !fermata!G4 | 
[V:4] !fermata!G,,4 | 
[V:1] !fermata!E4 ||  
[V:2] !fermata!c4 ||  
[V:3] !fermata!G4 ||  
[V:4] !fermata!C,4 ||  
[V:1] [M:3/2]z6 | 
[V:2] [M:3/2]G4G2- | 
[V:3] [M:3/2]z6 | 
[V:4] [M:3/2]z6 | 
[V:1] z6 | 
[V:2] G2A4 | 
[V:3] z6 | 
[V:4] z6 | 
[V:1] G4G2- | 
[V:2] B4B2 | 
[V:3] z6 | 
[V:4] z6 | 
[V:1] G2A4 | 
[V:2] c4A2 | 
[V:3] z6 | 
[V:4] z6 | 
[V:1] B4B2 | 
[V:2] G6 | 
[V:3] z6 | 
[V:4] z6 | 
[V:1] c2>B2A2 | 
[V:2] A2F4 | 
[V:3] z6 | 
[V:4] z6 | 
[V:1] G4D2 | 
[V:2] G4z2 | 
[V:3] z6 | 
[V:4] G,,4G,,2- | 
[V:1] G2E2C2 | 
[V:2] z6 | 
[V:3] z6 | 
[V:4] G,,2A,,4 | 
[V:1] D2>C2D2 | 
[V:2] z6 | 
[V:3] G4G2- | 
[V:4] B,,4B,,2 | 
[V:1] E2C2z2 | 
[V:2] z6 | 
[V:3] G2A4 | 
[V:4] C,4A,,2 | 
[V:1] z6 | 
[V:2] z2z2d2 | 
[V:3] B4B2 | 
[V:4] G,,4G,,2 | 
[V:1] z6 | 
[V:2] e4f2 | 
[V:3] c4A2 | 
[V:4] C,4D,2 | 
[V:1] z2z2D2 | 
[V:2] g2>f2d2 | 
[V:3] G4z2 | 
[V:4] E,2C,2z2 | 
[V:1] E4F2 | 
[V:2] c4z2 | 
[V:3] z6 | 
[V:4] z6 | 
[V:1] G2>F2D2 | 
[V:2] z6 | 
[V:3] z6 | 
[V:4] G,,4B,,2 | 
[V:1] C4z2 | 
[V:2] z6 | 
[V:3] G4B2 | 
[V:4] C,4D,2 | 
[V:1] z6 | 
[V:2] z6 | 
[V:3] c4d2 | 
[V:4] E,4D,2 | 
[V:1] z6 | 
[V:2] z6 | 
[V:3] e2d3c | 
[V:4] C,2G,3F, | 
[V:1] z6 | 
[V:2] z6 | 
[V:3] c4B2 | 
[V:4] E,2D,4 | 
[V:1] c4A2 | 
[V:2] z6 | 
[V:3] c4z2 | 
[V:4] C,4z2 | 
[V:1] G4A2 | 
[V:2] c4A2 | 
[V:3] z6 | 
[V:4] z6 | 
[V:1] B4A2 | 
[V:2] G4A2 | 
[V:3] z6 | 
[V:4] z6 | 
[V:1] d4c2 | 
[V:2] B4A2 | 
[V:3] z6 | 
[V:4] z6 | 
[V:1] A2B4 | 
[V:2] d4c2 | 
[V:3] z6 | 
[V:4] z6 | 
[V:1] A4^G2 | 
[V:2] A2B4 | 
[V:3] z6 | 
[V:4] z6 | 
[V:1] A4z2 | 
[V:2] A4z2 | 
[V:3] z6 | 
[V:4] A,,4C,2 | 
[V:1] z6 | 
[V:2] z6 | 
[V:3] A2>G2E2 | 
[V:4] D,4C,2 | 
[V:1] A2>G2E2 | 
[V:2] z6 | 
[V:3] F2>G2A2 | 
[V:4] D,4z2 | 
[V:1] F2>G2A2 | 
[V:2] z6 | 
[V:3] D2>E2F2 | 
[V:4] z6 | 
[V:1] D2>E2F2 | 
[V:2] z6 | 
[V:3] G4z2 | 
[V:4] z6 | 
[V:1] G4z2 | 
[V:2] z6 | 
[V:3] z6 | 
[V:4] G,,4B,,2 | 
[V:1] z6 | 
[V:2] G2>A2B2 | 
[V:3] z6 | 
[V:4] C,4D,2 | 
[V:1] z6 | 
[V:2] c2>d2e2 | 
[V:3] z6 | 
[V:4] E,2F,2C,2 | 
[V:1] z6 | 
[V:2] d4^c2 | 
[V:3] z6 | 
[V:4] D,2E,4 | 
[V:1] z6 | 
[V:2] d2>c2A2 | 
[V:3] D2>E2F2 | 
[V:4] z6 | 
[V:1] D2>E2F2 | 
[V:2] G4z2 | 
[V:3] G2B2A2 | 
[V:4] z6 | 
[V:1] G2B2A2 | 
[V:2] d6 | 
[V:3] G4F2 | 
[V:4] G,,4D,2 | 
[V:1] G4^F2 | 
[V:2] c2d4 | 
[V:3] G2A4 | 
[V:4] E,2D,4 | 
[V:1] G4B2 | 
[V:2] B4G2 | 
[V:3] G4z2 | 
[V:4] G,,4z2- | 
[V:1] d2>c2BA | 
[V:2] B2d2g2 | 
[V:3] G4B2 | 
[V:4] x6 | 
[V:1] B2A3G | 
[V:2] g2e2f2 | 
[V:3] d2c4 | 
[V:4] G,2A,2F,2 | 
[V:1] G4^F2 | 
[V:2] d6 | 
[V:3] B2A4 | 
[V:4] G,2D,4 | 
[V:1] G4 |]  
[V:2] d4 |]  
[V:3] G4 |]  
[V:4] G,,4 |]  


